X:1
T:Lord Moira's Welcome to Scotland. 2voices. Dix.22
T:Lord Moira's Welcome to Scotland. 2voices. Dix.22
T:Duncan MacIntyre Athole Collection credits A. Duff
C:Duncan MacIntyre
C:Athole Collection credits A. Duff
%%score 1 2
L:1/8
Q:1/4=120
M:4/4
K:F
V:1 treble 
V:2 treble 
V:1
 C2 |: F<F F<F A<c c2 | B>G A>F{EF} G>F EC | F<F F<F Ac c2 | d>f .e/.f/.g/.e/ .f/.g/.a/.g/ f<a :| %5
 f<f a<f g>f ec | d<d{e} f>d"^tr" c>B AF | f<f a<f"^tr" g>f ec | d>f e/f/g/e/ f2 f g/a/ | %9
 b>g a>f"^tr" g>f df | d/c/B/A/ f>A B/A/G/F/ G>A | F<F F<F B<d d2 | %12
 c>f .e/.f/.g/.e/ .f/.g/.a/.f/ f<a ::{B} A>F c>F (d/c/)B/A/ cf | AFcF"^tr" G>ABd | %15
 A>Fc>F"^quavers in ms" d/c/B/A/ c<g | d>f .e/.f/.g/.e/ .f/.g/.a/.g/ .f<a :: %17
"^rests omitted" f<a f<a e<g c2 | d>e fd c>BAF | (3fga (3fga (3fga c2 | %20
 d>f e/f/g/e/"^tr" f2 f g/a/ | (.d.b) (.c.a) (.B.g) (.A.f) |{ce} c>B A>F{EF} G>F EC | %23
 (3FGA (3GAB (3ABc (3Bcd |"^tr" B>f a/g/f/e/{g} f/e/d/c/B/A/G/"^f added"F/ :| %25
V:2
 z2 |: F,,2 F,2 F,,2 F,2 | E,2 F,2 C2 A,2 | A,2 F,2 F,2 A,,2 | B,,2 C,2 F,,2 F,2 :| %5
 F,2 F,2 C,2 C,2 | B,,2 D,E, F,2 F,,2 | F,2 F,2 C,2 C,2 | B,,2 C,2 F,2 F,, z | E,2 F,2 C2 B,2 | %10
 A,2 F,2 C,2 B,,2 | A,,2 F,,2 B,,2 B,,2 | E,2 E,,2 F,,2 F,2 :: %13
 [F,,F,]2 [F,,F,]2 [F,,F,]2 [F,,F,]2 | [F,,F,]2 [F,,F,]2 [E,,C,]2 [E,,C,]2 | %15
 [F,,F,]2 [F,,F,]2 [F,,F,]2 A,,2 | [B,,,B,,]2 [A,,,C,]2 F,,2 F,2 :: F,2 A,2 C2 C,2 | %18
 B,,2 D,E, F,2 F,,2 | F,2 A,2 C2 C,2 | B,,2 C,2 F,,2 F, z | B,2 A,2 G,2 F,2 | E,2 F,2 C,2 B,,2 | %23
 A,,2 E,,2 F,,2 B,,2 | C,2 E,,2 F,,2 F,,2 :| %25

